dist/img/main-hero-bottom-bg1.svg

<svg width="1920" height="323" fill="none" xmlns="http://www.w3.org/2000/svg"><path d="M2823 72.096c-10.5 11.614-17 25.415-17.9 40.422h-.1c-16.2 0-31.5 3.168-44.7 8.824-7.1-1.282-14.3-2.263-21.7-3.017-24.8-2.262-49.1-.829-71.9 3.771-27.3-34.087-74.4-58.748-131-64.027-89.4-8.296-171.4 34.842-194 98.642-4.1-.754-8.2-1.357-12.5-1.734-4.5-.377-8.9-.604-13.3-.604-16.3-8.899-35.8-14.856-57.2-16.817-67.8-6.259-129.6 30.09-137.9 81.297 0 .301-.1.603-.1.905-22-14.329-49.5-24.133-79.7-27.376-38.3-34.615-96-56.711-160.5-56.711-62.9 0-119.2 20.965-157.5 54.072-28.4-15.837-63.5-25.189-101.5-25.189-61.8 0-115.8 24.736-145.8 61.765-6.7-.905-13.5-1.358-20.5-1.358-25.2 0-48.6 5.883-67.8 15.913-34.3-28.582-83.9-46.531-139-46.531-5.2 0-10.3.151-15.3.452-22.6-23.453-59.3-38.612-100.6-38.612-27.3 0-52.5 6.637-73 17.874-18.3-44.495-73.3-76.772-138.2-76.772-47.1 0-89 17.043-115.4 43.287-6.7-2.639-14.2-4.147-22.3-4.147-8.8 0-17 1.81-24.1 4.902-20.2-16.592-49.1-26.923-81.3-26.923-37.7 0-71.1 14.253-91 36.048-6.1-1.207-12.3-2.263-18.7-3.092-56.5-7.089-111.3 5.43-152.3 30.92-31.7-44.118-90.5-75.566-159.6-81.674-11.8-38.386-57.5-67.043-112-67.043-25.4 0-48.9 6.259-67.9 16.741C48.5 18.174 3.9 0-46.4 0c-55 0-103.3 21.795-130.6 54.525V323h3000V72.096z" fill="#fff"/></svg>

<svg width="1920" height="323" viewBox="0 0 1920 323" fill="none" xmlns="http://www.w3.org/2000/svg">
<path d="M2823 72.0962C2812.5 83.71 2806 97.5109 2805.1 112.518H2805C2788.8 112.518 2773.5 115.686 2760.3 121.342C2753.2 120.06 2746 119.079 2738.6 118.325C2713.8 116.063 2689.5 117.496 2666.7 122.096C2639.4 88.0086 2592.3 63.3481 2535.7 58.0691C2446.3 49.7735 2364.3 92.9106 2341.7 156.711C2337.6 155.957 2333.5 155.354 2329.2 154.977C2324.7 154.6 2320.3 154.373 2315.9 154.373C2299.6 145.474 2280.1 139.517 2258.7 137.556C2190.9 131.297 2129.1 167.646 2120.8 218.853C2120.8 219.154 2120.7 219.456 2120.7 219.758C2098.7 205.429 2071.2 195.625 2041 192.382C2002.7 157.767 1945 135.671 1880.5 135.671C1817.6 135.671 1761.3 156.636 1723 189.743C1694.6 173.906 1659.5 164.554 1621.5 164.554C1559.7 164.554 1505.7 189.29 1475.7 226.319C1469 225.414 1462.2 224.961 1455.2 224.961C1430 224.961 1406.6 230.844 1387.4 240.874C1353.1 212.292 1303.5 194.343 1248.4 194.343C1243.2 194.343 1238.1 194.494 1233.1 194.795C1210.5 171.342 1173.8 156.183 1132.5 156.183C1105.2 156.183 1080 162.82 1059.5 174.057C1041.2 129.562 986.2 97.2846 921.3 97.2846C874.2 97.2846 832.3 114.328 805.9 140.572C799.2 137.933 791.7 136.425 783.6 136.425C774.8 136.425 766.6 138.235 759.5 141.327C739.3 124.735 710.4 114.404 678.2 114.404C640.5 114.404 607.1 128.657 587.2 150.452C581.1 149.245 574.9 148.189 568.5 147.36C512 140.271 457.2 152.79 416.2 178.28C384.5 134.162 325.7 102.714 256.6 96.6059C244.8 58.2199 199.1 29.5625 144.6 29.5625C119.2 29.5625 95.7 35.8219 76.7 46.3045C48.5 18.1749 3.90001 0 -46.4 0C-101.4 0 -149.7 21.7948 -177 54.5246V323H2823V72.0962Z" fill="white"/>
</svg>
